X: 9025
T: Da Bonnie Lass O' Bekkahill
R: reel
M: 4/4
K: Dmajor
|:AGFD EFG2|AGFA (3ABc F2|AGFD EFGB|AGFG Add2:|
|:defa edcA|defa fdg2|fddf edcA|BGFG Add2:|

